X:167
T:Mackilmoyle reel
R:Reel
B:N.E. Fiddler's
B:The Portland collection
Z:Transcription, chords:Mike Long
M:C|
L:1/8
K:D
"D"DFAd fdfd|"A"cdec "D"dBAF|"D"DFA=c "G"BGBG|"D"FGAF "A"E2FE|\
"D"DFAd fdfd|
"A"cdec "D"dBAF|"D"DFA=c "G"BGBd|"A"cdec "D"d2d2:|\
|:"A"cdef gfg2|Ace^g aga2|
"A"Acef "G"gfge|"D"dfed "A"cBA2|\
"A"Acef gfg2|Ace^g aga2|"A"Acef "G"gfge|"A"cdec "D"d2d2:|
